icons/delete-bin-5-fill.svg

<svg xmlns="http://www.w3.org/2000/svg" width="24" height="24" fill="none"><g clip-path="url(#a)"><g><path fill="#121212" d="M4 8H20V21C20 21.2652 19.8946 21.5196 19.7071 21.7071C19.5196 21.8946 19.2652 22 19 22H5C4.73478 22 4.48043 21.8946 4.29289 21.7071C4.10536 21.5196 4 21.2652 4 21V8ZM7 5V3C7 2.73478 7.10536 2.48043 7.29289 2.29289C7.48043 2.10536 7.73478 2 8 2H16C16.2652 2 16.5196 2.10536 16.7071 2.29289C16.8946 2.48043 17 2.73478 17 3V5H22V7H2V5H7ZM9 4V5H15V4H9ZM9 12V18H11V12H9ZM13 12V18H15V12H13Z"/></g></g><defs><clipPath id="a"><rect width="24" height="24" fill="white"/></clipPath></defs></svg>

<svg width="24" height="24" fill="none" xmlns="http://www.w3.org/2000/svg"><g clip-path="url(#a)"><path d="M4 8h16v13a1 1 0 0 1-1 1H5a1 1 0 0 1-1-1V8Zm3-3V3a1 1 0 0 1 1-1h8a1 1 0 0 1 1 1v2h5v2H2V5h5Zm2-1v1h6V4H9Zm0 8v6h2v-6H9Zm4 0v6h2v-6h-2Z" /></g><defs><clipPath id="a"><path fill="#fff" d="M0 0h24v24H0z"/></clipPath></defs></svg>
